build/documents/FileCSVSolid.svg

<svg xmlns="http://www.w3.org/2000/svg" fill="none" viewBox="0 0 24 24" focusable="false"><path fill="none" d="M0 0H24V24H0z"/><path fill="#74767B" fill-rule="evenodd" d="M5 6L5 11C3.34315 11 2 12.3431 2 14L2 18C2 19.6569 3.34315 21 5 21L19 21C20.6569 21 22 19.6569 22 18L22 14C22 12.3431 20.6569 11 19 11L19 9.17966C19 8.42148 18.7129 7.69141 18.1965 7.13629L15.2385 3.95662C14.671 3.34655 13.8752 3 13.042 3L8 3C6.34315 3 5 4.34315 5 6ZM8 4.3L13.042 4.3C13.1461 4.3 13.2491 4.30954 13.3499 4.32811L13.3499 7.04926C13.3499 8.12621 14.223 8.99926 15.2999 8.99926L17.6904 8.99925C17.6968 9.05892 17.7 9.11913 17.7 9.17966L17.7 11L6.3 11L6.3 6C6.3 5.06112 7.06112 4.3 8 4.3ZM16.9447 7.69926L14.6499 5.23254L14.6499 7.04926C14.6499 7.40824 14.9409 7.69926 15.2999 7.69926L16.9447 7.69926ZM12.5033 13.5802C12.8623 13.5802 13.1533 13.8712 13.1533 14.2302C13.1533 14.5892 12.8623 14.8802 12.5033 14.8802L11.6435 14.8802C11.528 14.8802 11.4345 14.9738 11.4345 15.0892C11.4345 15.1766 11.4888 15.2547 11.5706 15.2852L12.3237 15.5651C12.9009 15.7796 13.2838 16.3305 13.2838 16.9462C13.2838 17.76 12.6241 18.4197 11.8103 18.4197L10.7845 18.4197C10.4255 18.4197 10.1345 18.1287 10.1345 17.7697C10.1345 17.4107 10.4255 17.1197 10.7845 17.1197L11.8103 17.1197C11.9061 17.1197 11.9838 17.0421 11.9838 16.9462C11.9838 16.8737 11.9387 16.8089 11.8707 16.7836L11.1177 16.5037C10.5266 16.284 10.1345 15.7199 10.1345 15.0892C10.1345 14.2558 10.8101 13.5802 11.6435 13.5802L12.5033 13.5802ZM7.22566 17.106C6.86667 17.106 6.57566 16.815 6.57566 16.456L6.57566 15.5387C6.57566 15.1797 6.86667 14.8887 7.22566 14.8887L7.91769 14.8887C8.27667 14.8887 8.56769 14.5977 8.56769 14.2387C8.56769 13.8797 8.27667 13.5887 7.91769 13.5887L7.22566 13.5887C6.1487 13.5887 5.27566 14.4618 5.27566 15.5387L5.27566 16.456C5.27566 17.5329 6.1487 18.406 7.22566 18.406L7.91769 18.406C8.27667 18.406 8.56769 18.115 8.56769 17.756C8.56769 17.397 8.27667 17.106 7.91769 17.106L7.22566 17.106ZM14.905 13.6294C15.2368 13.4924 15.6168 13.6504 15.7538 13.9823L16.6136 16.0657L17.4735 13.9823C17.6104 13.6504 17.9905 13.4924 18.3223 13.6294C18.6541 13.7663 18.8121 14.1464 18.6752 14.4782L17.2173 18.0108C17.2063 18.0383 17.1935 18.065 17.1789 18.0907C17.1573 18.1288 17.1323 18.164 17.1044 18.1961C17.0403 18.2701 16.9583 18.3306 16.8616 18.3705C16.7804 18.404 16.6964 18.4199 16.6136 18.4198C16.5309 18.4199 16.4469 18.404 16.3657 18.3705C16.269 18.3306 16.187 18.2701 16.1229 18.1961C16.095 18.164 16.07 18.1288 16.0484 18.0907C16.0338 18.065 16.021 18.0383 16.01 18.0108L14.5521 14.4782C14.4152 14.1464 14.5732 13.7663 14.905 13.6294Z"/></svg>

<svg xmlns="http://www.w3.org/2000/svg" fill="none" viewBox="0 0 24 24" focusable="false"><path fill="none" d="M0 0h24v24H0z"/><path fill="#74767B" fill-rule="evenodd" d="M5 6v5c-1.66 0-3 1.34-3 3v4c0 1.65 1.34 3 3 3h14c1.65 0 3-1.35 3-3v-4c0-1.66-1.35-3-3-3V9.17c0-.75-.29-1.48-.81-2.04l-2.96-3.18c-.56-.61-1.36-.95-2.19-.95H8C6.34 3 5 4.34 5 6m3-1.71h5.04q.15 0 .3.03v2.72c0 1.08.88 1.95 1.95 1.95h2.4c0 .06.01.12.01.18V11H6.3V6c0-.94.76-1.71 1.7-1.71m8.94 3.4-2.3-2.46v1.81c0 .36.3.65.65.65zm-4.44 5.89c.36 0 .65.29.65.65 0 .35-.29.65-.65.65h-.86c-.12 0-.21.09-.21.2 0 .09.05.17.14.2l.75.28c.58.21.96.77.96 1.38 0 .82-.66 1.47-1.47 1.47h-1.03c-.36 0-.65-.29-.65-.65 0-.35.29-.65.65-.65h1.03c.09 0 .17-.07.17-.17 0-.07-.05-.14-.11-.16l-.76-.28a1.507 1.507 0 0 1 .53-2.92zM7.22 17.1c-.36 0-.65-.29-.65-.65v-.92c0-.36.29-.65.65-.65h.69c.36 0 .65-.29.65-.65s-.29-.65-.65-.65h-.69c-1.08 0-1.95.88-1.95 1.95v.92c0 1.08.87 1.95 1.95 1.95h.69c.36 0 .65-.29.65-.65s-.29-.65-.65-.65zm7.68-3.48c.33-.13.71.03.85.36l.86 2.08.86-2.08c.14-.33.52-.49.85-.36.33.14.49.52.35.85l-1.46 3.54c-.01.02-.02.05-.04.08s-.04.07-.07.1a.6.6 0 0 1-.24.18c-.08.03-.17.04-.25.04s-.17-.01-.25-.04q-.15-.06-.24-.18c-.03-.03-.05-.07-.08-.1a1 1 0 0 0-.03-.08l-1.46-3.54a.65.65 0 0 1 .35-.85"/></svg>
